icons/Personnes.svg

<svg xmlns="http://www.w3.org/2000/svg" width="24" height="24" viewBox="0 0 24 24"><path d="M17.997 18h-11.995l-.002-.623c0-1.259.1-1.986 1.588-2.33 1.684-.389 3.344-.736 2.545-2.209-2.366-4.363-.674-6.838 1.866-6.838 2.491 0 4.226 2.383 1.866 6.839-.775 1.464.826 1.812 2.545 2.209 1.49.344 1.589 1.072 1.589 2.333l-.002.619zm4.811-2.214c-1.29-.298-2.49-.559-1.909-1.657 1.769-3.342.469-5.129-1.4-5.129-1.265 0-2.248.817-2.248 2.324 0 3.903 2.268 1.77 2.246 6.676h4.501l.002-.463c0-.946-.074-1.493-1.192-1.751zm-22.806 2.214h4.501c-.021-4.906 2.246-2.772 2.246-6.676 0-1.507-.983-2.324-2.248-2.324-1.869 0-3.169 1.787-1.399 5.129.581 1.099-.619 1.359-1.909 1.657-1.119.258-1.193.805-1.193 1.751l.002.463z"/></svg>

<?xml version="1.0" encoding="utf-8"?>
<!-- Generator: Adobe Illustrator 23.0.1, SVG Export Plug-In . SVG Version: 6.00 Build 0)  -->
<svg version="1.1" id="Calque_1" xmlns="http://www.w3.org/2000/svg" xmlns:xlink="http://www.w3.org/1999/xlink" x="0px" y="0px"
	 viewBox="0 0 24 24" style="enable-background:new 0 0 24 24;" xml:space="preserve">
<style type="text/css">
	.st0{fill:#FF9300;}
</style>
<path class="st0" d="M18,18H6l0-0.6c0-1.3,0.1-2,1.6-2.3c1.7-0.4,3.3-0.7,2.5-2.2C7.8,8.5,9.5,6,12,6c2.5,0,4.2,2.4,1.9,6.8
	c-0.8,1.5,0.8,1.8,2.5,2.2c1.5,0.3,1.6,1.1,1.6,2.3C18,17.4,18,18,18,18z M22.8,15.8c-1.3-0.3-2.5-0.6-1.9-1.7
	c1.8-3.3,0.5-5.1-1.4-5.1c-1.3,0-2.2,0.8-2.2,2.3c0,3.9,2.3,1.8,2.2,6.7H24l0-0.5C24,16.6,23.9,16,22.8,15.8z M0,18h4.5
	c0-4.9,2.2-2.8,2.2-6.7c0-1.5-1-2.3-2.2-2.3c-1.9,0-3.2,1.8-1.4,5.1c0.6,1.1-0.6,1.4-1.9,1.7C0.1,16,0,16.6,0,17.5C0,17.5,0,18,0,18
	z"/>
</svg>
